src/symbolic/status/arch-error-symbolic.svg

<svg xmlns="http://www.w3.org/2000/svg" width="16" height="16"><path class="warning" d="M8 1C6.175 2.725 3 4 2 4.25 2 9 4.25 14.25 8 15c3.75-.75 6-6 6-10.75C13 4 9.825 2.725 8 1zM5 5h1l2 2 2-2h1v1L9 8l2 2v1h-1L8 9l-2 2H5v-1l2-2-2-2V5z" fill="#5294e2"/></svg>

<svg xmlns="http://www.w3.org/2000/svg" width="16" height="16" version="1.1">
 <path style="fill:#5294e2" class="warning" d="M 8 1 C 6.175 2.725 3 4 2 4.25 C 2 9 4.25 14.25 8 15 C 11.75 14.25 14 9 14 4.25 C 13 4 9.825 2.725 8 1 z M 5 5 L 6 5 L 8 7 L 10 5 L 11 5 L 11 6 L 9 8 L 11 10 L 11 11 L 10 11 L 8 9 L 6 11 L 5 11 L 5 10 L 7 8 L 5 6 L 5 5 z"/>
</svg>
